!!!OTL: ES WAR EIN MARKGRAF AN DEM RHEIN
!!!ARE: Europa, Mitteleuropa, Deutschland, Sueddeutschland
!!!SCT: E0182
!!!YEM: Copyright 1995, estate of Helmut Schaffrath.
**kern
*ICvox
*Ivox
*M2/4
*k[f#]
*G:
{8d
=1
4g
4a
=2
8b
8dd
8cc
8b
=3
4a
8r}
{8b
=4
8cc
8b
8a
8g
=5
8f#
8e
8d}
{8d
=6
4g
4a
=7
8.b
16cc
8dd
8cc
=8
4b
4a
=9
4g
8r}
==
!!!AGN: erzaehlendes Volks - Lied, Sage, Familien - Geschichte
!!!ONB: ESAC (Essen Associative Code) Database: ERK1
!!!AMT: simple duple
!!!AIN: vox
!!!EED: Helmut Schaffrath
!!!EEV: 1.0
*-
